assets/icons/bookmark.svg

<svg width="20" height="20" viewBox="0 0 20 20" fill="none" xmlns="http://www.w3.org/2000/svg">
<path d="M5.56058 16.9026C4.90071 17.1854 4.16666 16.7014 4.16666 15.9835V3.5C4.16666 2.94772 4.61437 2.5 5.16666 2.5H14.8333C15.3856 2.5 15.8333 2.94772 15.8333 3.5V15.9835C15.8333 16.7014 15.0993 17.1854 14.4394 16.9026L10.3939 15.1688C10.1424 15.061 9.85762 15.061 9.60607 15.1688L5.56058 16.9026Z" stroke="currentColor"/>
</svg>

<svg xmlns="http://www.w3.org/2000/svg" width="20" height="20" fill="none" viewBox="0 0 20 20"><path stroke="currentColor" d="M5.56 16.903a1 1 0 0 1-1.393-.92V3.5a1 1 0 0 1 1-1h9.666a1 1 0 0 1 1 1v12.484a1 1 0 0 1-1.394.919l-4.045-1.734a1 1 0 0 0-.788 0z"/></svg>
